svgs/solid/gauge-max.svg

<svg xmlns="http://www.w3.org/2000/svg" viewBox="0 0 512 512"><!--! Font Awesome Pro 6.2.0 by @fontawesome - https://fontawesome.com License - https://fontawesome.com/license (Commercial License) Copyright 2022 Fonticons, Inc. --><path d="M512 256c0 141.4-114.6 256-256 256S0 397.4 0 256S114.6 0 256 0S512 114.6 512 256zM288 96c0-17.7-14.3-32-32-32s-32 14.3-32 32s14.3 32 32 32s32-14.3 32-32zM256 416c35.3 0 64-28.7 64-64c0-3.7-.3-7.3-.9-10.8l117.5-72.8c11.3-7 14.7-21.8 7.8-33s-21.8-14.8-33-7.8L293.8 300.4C283.2 292.6 270.1 288 256 288c-35.3 0-64 28.7-64 64s28.7 64 64 64zM176 144c0-17.7-14.3-32-32-32s-32 14.3-32 32s14.3 32 32 32s32-14.3 32-32zM96 288c17.7 0 32-14.3 32-32s-14.3-32-32-32s-32 14.3-32 32s14.3 32 32 32zM400 144c0-17.7-14.3-32-32-32s-32 14.3-32 32s14.3 32 32 32s32-14.3 32-32z"/></svg>

<svg xmlns="http://www.w3.org/2000/svg" viewBox="0 0 512 512"><!--! Font Awesome Pro 6.1.2 by @fontawesome - https://fontawesome.com License - https://fontawesome.com/license (Commercial License) Copyright 2022 Fonticons, Inc. --><path d="M512 256C512 397.4 397.4 512 256 512C114.6 512 0 397.4 0 256C0 114.6 114.6 0 256 0C397.4 0 512 114.6 512 256zM256 64C238.3 64 224 78.33 224 96C224 113.7 238.3 128 256 128C273.7 128 288 113.7 288 96C288 78.33 273.7 64 256 64zM256 416C291.3 416 320 387.3 320 352C320 348.3 319.7 344.7 319.1 341.2L436.6 268.4C447.9 261.4 451.4 246.6 444.4 235.4C437.4 224.1 422.6 220.6 411.4 227.6L293.8 300.4C283.2 292.6 270.1 288 256 288C220.7 288 192 316.7 192 352C192 387.3 220.7 416 256 416L256 416zM144 112C126.3 112 112 126.3 112 144C112 161.7 126.3 176 144 176C161.7 176 176 161.7 176 144C176 126.3 161.7 112 144 112zM96 288C113.7 288 128 273.7 128 256C128 238.3 113.7 224 96 224C78.33 224 64 238.3 64 256C64 273.7 78.33 288 96 288zM368 112C350.3 112 336 126.3 336 144C336 161.7 350.3 176 368 176C385.7 176 400 161.7 400 144C400 126.3 385.7 112 368 112z"/></svg>
